COLOR/action 16/16/sound.svg

<svg height="16" width="16" xmlns="http://www.w3.org/2000/svg"><path d="m4.3705693.50000642c-3.50960542 0-3.8872371.30899-3.87003256 3.32330998v4.17669 4.1766796c-.0171642 3.01433.36042714 3.32332 3.87003256 3.32332h7.2593877c3.509615 0 3.870043-.30895 3.870043-3.32332v-4.1766796-4.17669c0-3.01435998-.360438-3.32330998-3.870043-3.32330998z" fill="#e72662"/><path d="m10.904553 3.5015129c-.06921-.00423-.150683.0009193-.246682.00951l-4.3359109.6766336c-.4891681.0498753-.5423613.2781601-.5380289.5627025v5.725601c-.2486259-.16333-.5147081-.279586-.8692872-.279586-.4565696 0-.7291398.175018-.8939711.405278-.1648102.230272-.2196729.520415-.2196729.744769 0 .270562.093305.558803.2936932.778856.2003885.220032.5085371.374719.9515179.37473.5002316 0 .8512919-.139524 1.050201-.412327.1566103-.214791.2439871-.502429.2748844-.856374.00423-.0429.0074-.08739.00951-.13274.00317-.03593.00317-.06118.00317-.103343h.00211v-4.6331018c.0133176-.372532.3512434-.4275955.3512434-.4275955l3.5206521-.5497687c.337968-.1033431.338327.3148268.338327.3148268v4.174957c-.248636-.1633303-.514718-.2795755-.869287-.2795755-.4565907 0-.7291504.175007-.8939711.4052677-.1648207.230282-.219694.520404-.219694.744779 0 .270562.093305.558803.2937038.778835.200399.220054.5085265.374741.9515173.374751.500232 0 .851292-.139545 1.050212-.412337.1566-.21478.243966-.502429.274863-.856364.0042-.04301.0074-.08739.0095-.13275.0032-.03593.0032-.06118.0032-.103343h.0021v-6.3564388c.0074-.4123794-.08444-.5209637-.292505-.5356726z" fill="#fff" fill-rule="evenodd"/><path d="m4.3710938.5c-3.50960547 0-3.88829834.30989877-3.8710938 3.3242188v.5c-.01720454-3.0143201.36148833-3.3242188 3.8710938-3.3242188h7.2597652c3.509605 0 3.869141.3098588 3.869141 3.3242188v-.5c0-3.01436003-.359536-3.3242188-3.869141-3.3242188z" fill="#fff" opacity=".3"/><path d="m.5 11.675781v.5c-.0171642 3.01433.36148833 3.324219 3.8710938 3.324219h7.2597652c3.509615 0 3.869141-.309849 3.869141-3.324219v-.5c0 3.01437-.359526 3.324219-3.869141 3.324219h-7.2597652c-3.50960547 0-3.888258-.309889-3.8710938-3.324219z" opacity=".2"/></svg>

<?xml version="1.0" encoding="UTF-8" standalone="no"?>
<svg
   xmlns:dc="http://purl.org/dc/elements/1.1/"
   xmlns:cc="http://creativecommons.org/ns#"
   xmlns:rdf="http://www.w3.org/1999/02/22-rdf-syntax-ns#"
   xmlns:svg="http://www.w3.org/2000/svg"
   xmlns="http://www.w3.org/2000/svg"
   xmlns:sodipodi="http://sodipodi.sourceforge.net/DTD/sodipodi-0.dtd"
   xmlns:inkscape="http://www.inkscape.org/namespaces/inkscape"
   width="16"
   height="16"
   version="1.1"
   id="svg6"
   sodipodi:docname="sound.svg"
   inkscape:version="0.92.4 (5da689c313, 2019-01-14)">
  <metadata
     id="metadata12">
    <rdf:RDF>
      <cc:Work
         rdf:about="">
        <dc:format>image/svg+xml</dc:format>
        <dc:type
           rdf:resource="http://purl.org/dc/dcmitype/StillImage" />
        <dc:title />
      </cc:Work>
    </rdf:RDF>
  </metadata>
  <defs
     id="defs10">
    <clipPath
       clipPathUnits="userSpaceOnUse"
       id="clipPath983">
      <path
         sodipodi:nodetypes="scccssscsss"
         inkscape:connector-curvature="0"
         id="path985"
         d="m 325.09646,237 c -2.80769,0 -3.10979,0.28839 -3.09603,3.10176 V 244 v 3.89824 c -0.0138,2.81337 0.28834,3.10176 3.09603,3.10176 h 5.8075 C 333.71166,251 334,250.71165 334,247.89824 V 244 240.10176 C 334,237.28836 333.71165,237 330.90396,237 Z"
         style="color:#000000;display:inline;overflow:visible;visibility:visible;opacity:1;fill:#46a926;fill-opacity:1;fill-rule:nonzero;stroke:none;stroke-width:2;stroke-miterlimit:4;stroke-dasharray:none;stroke-opacity:1;marker:none;enable-background:accumulate" />
    </clipPath>
  </defs>
  <sodipodi:namedview
     pagecolor="#ffffff"
     bordercolor="#666666"
     borderopacity="1"
     objecttolerance="10"
     gridtolerance="10"
     guidetolerance="10"
     inkscape:pageopacity="0"
     inkscape:pageshadow="2"
     inkscape:window-width="1920"
     inkscape:window-height="1016"
     id="namedview8"
     showgrid="false"
     inkscape:zoom="52.437505"
     inkscape:cx="8.000001"
     inkscape:cy="7.9999988"
     inkscape:window-x="0"
     inkscape:window-y="27"
     inkscape:window-maximized="1"
     inkscape:current-layer="svg6" />
  <path
     style="color:#000000;display:inline;overflow:visible;visibility:visible;fill:#e72662;fill-opacity:1;fill-rule:nonzero;stroke:none;stroke-width:1.00481653;marker:none;enable-background:accumulate"
     d="m 4.3705693,0.50000642 c -3.50960542,0 -3.8872371,0.30899 -3.87003256,3.32330998 v 4.17669 4.1766796 c -0.0171642,3.01433 0.36042714,3.32332 3.87003256,3.32332 h 7.2593877 c 3.509615,0 3.870043,-0.30895 3.870043,-3.32332 v -4.1766796 -4.17669 c 0,-3.01435998 -0.360438,-3.32330998 -3.870043,-3.32330998 z"
     id="path918"
     inkscape:connector-curvature="0"
     sodipodi:nodetypes="scccssscsss" />
  <path
     style="color:#000000;font-style:normal;font-variant:normal;font-weight:normal;font-stretch:normal;font-size:medium;line-height:normal;font-family:sans-serif;font-variant-ligatures:normal;font-variant-position:normal;font-variant-caps:normal;font-variant-numeric:normal;font-variant-alternates:normal;font-feature-settings:normal;text-indent:0;text-align:start;text-decoration:none;text-decoration-line:none;text-decoration-style:solid;text-decoration-color:#000000;letter-spacing:normal;word-spacing:normal;text-transform:none;writing-mode:lr-tb;direction:ltr;text-orientation:mixed;dominant-baseline:auto;baseline-shift:baseline;text-anchor:start;white-space:normal;shape-padding:0;clip-rule:nonzero;display:inline;overflow:visible;visibility:visible;opacity:1;isolation:auto;mix-blend-mode:normal;color-interpolation:sRGB;color-interpolation-filters:linearRGB;solid-color:#000000;solid-opacity:1;vector-effect:none;fill:#ffffff;fill-opacity:1;fill-rule:evenodd;stroke:none;stroke-width:0.60145849px;stroke-linecap:butt;stroke-linejoin:round;stroke-miterlimit:4;stroke-dasharray:none;stroke-dashoffset:0;stroke-opacity:1;color-rendering:auto;image-rendering:auto;shape-rendering:auto;text-rendering:auto;enable-background:accumulate"
     d="m 10.904553,3.5015129 c -0.06921,-0.00423 -0.150683,9.193e-4 -0.246682,0.00951 L 6.3219601,4.1876565 C 5.832792,4.2375318 5.7795988,4.4658166 5.7839312,4.750359 V 10.47596 C 5.5353053,10.31263 5.2692231,10.196374 4.914644,10.196374 c -0.4565696,0 -0.7291398,0.175018 -0.8939711,0.405278 C 3.8558627,10.831924 3.801,11.122067 3.801,11.346421 c 0,0.270562 0.093305,0.558803 0.2936932,0.778856 0.2003885,0.220032 0.5085371,0.374719 0.9515179,0.37473 0.5002316,0 0.8512919,-0.139524 1.050201,-0.412327 0.1566103,-0.214791 0.2439871,-0.502429 0.2748844,-0.856374 0.00423,-0.0429 0.0074,-0.08739 0.00951,-0.13274 0.00317,-0.03593 0.00317,-0.06118 0.00317,-0.103343 h 0.00211 V 6.3621212 C 6.3994041,5.9895892 6.7373299,5.9345257 6.7373299,5.9345257 L 10.257982,5.384757 c 0.337968,-0.1033431 0.338327,0.3148268 0.338327,0.3148268 v 4.174957 C 10.347673,9.7112105 10.081591,9.5949653 9.727022,9.5949653 c -0.4565907,0 -0.7291504,0.175007 -0.8939711,0.4052677 -0.1648207,0.230282 -0.219694,0.520404 -0.219694,0.744779 0,0.270562 0.093305,0.558803 0.2937038,0.778835 0.200399,0.220054 0.5085265,0.374741 0.9515173,0.374751 0.500232,0 0.851292,-0.139545 1.050212,-0.412337 0.1566,-0.21478 0.243966,-0.502429 0.274863,-0.856364 0.0042,-0.04301 0.0074,-0.08739 0.0095,-0.13275 0.0032,-0.03593 0.0032,-0.06118 0.0032,-0.103343 h 0.0021 V 4.0373652 c 0.0074,-0.4123794 -0.08444,-0.5209637 -0.292505,-0.5356726 z"
     id="path1954-5"
     inkscape:connector-curvature="0" />
  <path
     style="color:#000000;display:inline;overflow:visible;visibility:visible;fill:#ffffff;fill-opacity:1;fill-rule:nonzero;stroke:none;stroke-width:1.00481653;marker:none;enable-background:accumulate;opacity:0.3"
     d="M 4.3710938 0.5 C 0.86148833 0.5 0.48279546 0.80989877 0.5 3.8242188 L 0.5 4.3242188 C 0.48279546 1.3098987 0.86148833 1 4.3710938 1 L 11.630859 1 C 15.140464 1 15.5 1.3098588 15.5 4.3242188 L 15.5 3.8242188 C 15.5 0.80985877 15.140464 0.5 11.630859 0.5 L 4.3710938 0.5 z "
     id="path834" />
  <path
     style="color:#000000;display:inline;overflow:visible;visibility:visible;fill:#000000;fill-opacity:1;fill-rule:nonzero;stroke:none;stroke-width:1.00481653;marker:none;enable-background:accumulate;opacity:0.2"
     d="M 0.5 11.675781 L 0.5 12.175781 C 0.4828358 15.190111 0.86148833 15.5 4.3710938 15.5 L 11.630859 15.5 C 15.140474 15.5 15.5 15.190151 15.5 12.175781 L 15.5 11.675781 C 15.5 14.690151 15.140474 15 11.630859 15 L 4.3710938 15 C 0.86148833 15 0.4828358 14.690111 0.5 11.675781 z "
     id="path839" />
</svg>
